!!!!SEGMENT: pl-sa--554-a-ix-34--001_vanhal-johann-baptist--cadencya.krn
!!!cenid: 18xx:564
!!!COM: Vanhal, Johann Baptist
!!!COM-rism: pe114557
!!!CDT: 1739/05/12-1813/08/20
!!!CNT: Czech
!!!OTL: Cadencya
!!!PDT:
!!!AGN: Secular
!!!SMS-siglum: PL-SA
!!!SMS-shelfmark: 554/A IX 34
!!!NIFC-rismID: 1001069593
!!!URL-scan: http://bc.bdsandomierz.pl/dlibra/publication/1310/edition/1278/content
!!!ONB-nifc: Str. 1, s. 1-2
!!!SMS-variant:
!!!SMS-altvar:
**kern	**kern
*part2	*part1
*staff2	*staff1
*I"Piano	*
*clefF4	*clefG2
*k[]	*k[]
*M4/4	*M4/4
*met(C.)	*met(C.)
=1	=1
!	!LO:TX:b:i:t=Cadencya
1C 1CC;	1cc 1g 1e;
=2	=2
4C 4CC/	16r
.	16c/LL
.	16d/
.	16e/JJ
4r	16f\LL
.	16g\
.	16a\
.	16b\JJ
2r	16cc\LL
.	16e\
.	16f\
.	16g\JJ
.	16a\LL
.	16b\
.	16cc\
.	16dd\JJ
=3	=3
1r	16ee\LL
.	16g\
.	16a\
.	16b\JJ
.	16cc\LL
.	16dd\
.	16ee\
.	16ff\JJ
.	16gg\LL
.	16cc\
.	16dd\
.	16ee\JJ
.	16ff\LL
.	16gg\
.	16aa\
.	16bb\JJ
=4	=4
4r	4ccc\
4F#X\	4cc 4a 4e-X 4c#X/
4G\	4cc 4g 4en/
4GG/	4b 4g 4f 4d/
=5	=5
1C 1CC	1cc 1g 1e
!!LO:LB:g=original
=6||	=6||
1C 1CC	4ccc 4gg 4ee 4cc\
*	*Xtuplet
.	176%5bb\LLL
.	176%5aa\
.	176%5gg\
.	176%5ff\
.	176%5ee\
.	176%5dd\
.	176%5cc\
.	176%5b\
.	176%5a\
.	176%5g\
.	176%5f\
.	176%5e\
.	176%5d\
.	176%5c\
.	176%5B<\
.	176%5A<\
.	176%5G<\
.	176%5F<\
.	176%5E<\
.	176%5D<\
.	176%5C<\
.	176%5BB<\JJJ
.	32C<\LLL
.	32E<\
.	32G<\
.	32c<\JJJ
=7-	=7-
32E\LLL	4ryy
32G\	.
32c\	.
32e\JJJ	.
32G\LLL	.
32c\	.
32e\	.
32g>\JJJ	.
2ryy	32c\LLL
.	32e\
.	32g\
.	32cc\JJJ
.	32e\LLL
.	32g\
.	32cc\
.	32ee\JJJ
.	32g\LLL
.	32cc\
.	32ee\
.	32gg\JJJ
.	32cc\LLL
.	32ee\
.	32gg\
.	32ccc\JJJ
=8	=8
4F 4FF/	4aa 4ff 4cc\
4G 4GG/	4gg 4ee 4cc\
4A-X/	4gg-X 4ee-X 4cc\
4G 4GG/	4ggn 4een 4cc\
=9	=9
2G 2GG/	2b 2g 2f 2d/
2C 2CC/	2cc 2e/
==	==
*-	*-
!!!system-decoration: {s1,s2}
!!!RDF**kern: > = above
!!!RDF**kern: < = below
!!!ENC: Marta Lawrence
!!!END: 2020-12-13
!!!ENC: Mateusz Solarz
!!!END: 2020-06-18
